X:5
T:Carolan's Draught
Z: id:dc-ocarolan-3
M:C|
L:1/8
K:G Major
D2|GABc defd|g2fe d2d2|e2E2 d2D2|c2Bc AcBA|!
GABc defd|gfed ^cbag|gfed A2^c2|d6:|!
fg|afga bagf|egfe edcB|e^def gfga|bagf efga|!
bBbB aBaB|gBgB fBfB|e^def gfe=d|e6 f2|!
gfed cBAG|e2d2 d2D2|c2B2 A2G2|FGAF D3D|!
EFGE FGAF|GABG ABcA|d2g2 bagf|g6|]!

